!!!COM: Joplin, Scott
!!!CDT: 1868/11/24/-1917/04/01/
!!!OTL: Rose Leaf Rag
!!!ODT: 1907///
!!!PPR: Jos. M. Daly Music Co.
!!!PPP: Boston, Mass.
!!!PDT: 1907///
!!!ENC: Craig Stuart Sapp
!!!END: 2004/06/07/
!!!YEC: Copyright 2004 by Craig Stuart Sapp
**kern	**kern	**dynam
*staff2	*staff1	*staff1
*Ipiano	*Ipiano	*Ipiano
*>[I,A,A1,A,A2,B,B1,B,B2,C,D,D1,D,D2,E,E1,E,E2]	*>[I,A,A1,A,A2,B,B1,B,B2,C,D,D1,D,D2,E,E1,E,E2]	*>[I,A,A1,A,A2,B,B1,B,B2,C,D,D1,D,D2,E,E1,E,E2]
*>norep[I,A,A2,B,B2,C,D,D2,E,E2]	*>norep[I,A,A2,B,B2,C,D,D2,E,E2]	*>norep[I,A,A2,B,B2,C,D,D2,E,E2]
*>I	*>I	*>I
=1-	=1-	=1-
*clefF4	*clefG2	*clefG2
*k[]	*k[]	*k[]
*C:	*C:	*C:
*M2/4	*M2/4	*M2/4
*MM92	*MM92	*MM92
16GLL	16gLL	mf
16A	16a	.
16F#	16f#	.
[16GJJ	[16gJJ	.
(16GLL]	(16gLL]	.
16c	16cc	.
16B	16b	.
16AJJ)	16aJJ)	.
=2	=2	=2
16GLL	16gLL	.
16A	16a	.
16F#	16f#	.
[16GJJ	[16gJJ	.
(16GLL]	(16gLL]	.
16e	16ee	.
16d	16dd	.
16cJJ)	16ccJJ)	.
=3	=3	=3
*	*^	*
(8.GL	(8.eL	4c	.
16F#Jk)	16d#Jk	.	.
*	*v	*v	*
16GLK	16c 16eLK)	.
8A	8c 8dn 8f	.
16A-Jk	16c 16d 16f#Jk	.
=4	=4	=4
4G	4B 4d 4g	.
4GGG 4GG	4g 4b 4dd 4gg	.
=5!|:	=5!|:	=5!|:
*>A	*>A	*>A
*^	*^	*
4G	8C 8cL	(16ccLL	4e	mf
.	.	16b	.	.
.	16EL	16cc	.	.
.	16GJJ	16eeJJ)	.	.
4r	(16F#LL	(16aaLL	4r	.
.	16A	16dd#	.	.
.	16c	16cc	.	.
.	16d#JJ)	16aJJ)	.	.
*v	*v	*	*	*
=6	=6	=6	=6
2r	16gLL	(16eLL	.
.	16f#	16d#	.
.	16fn	16dn	.
.	&([16eJJ&)	[16cJJ)	.
.	16eLL]	8cL]	.
.	16eJ	.	.
.	8d 8eJ	8E 8G#J	.
=7	=7	=7	=7
*^	*	*	*
4E	8AA 8AL	(16aLL	4c	.
.	.	16g#	.	.
.	16CL	16a	.	.
.	16EJJ	16ccJJ)	.	.
4r	16DLL	(16ffLL	4r	.
.	16F	16dd	.	.
.	16G#	16b	.	.
.	(16BJJ	16g#JJ)	.	.
*v	*v	*	*	*
=8	=8	=8	=8
16cLL	16aLL	16aLL	.
16e	16cc	16a	.
16c#	16b-	16e	.
[16dJJ)	[16aJJ	&([16fJJ&)	.
8dL]	16aLL]	8fL]	.
.	16b-J	.	.
8AA- 8A-J	8ccJ	8fJ	.
=9	=9	=9	=9
8GG 8GL	16ccLK	8.d 8.fL	.
.	8b	.	.
8F 8G 8BJ	.	.	.
.	[16a#Jk	[16c# [16eJk	.
8GG 8GL	16a#LL]	8c#] 8eL]	.
.	16a#J	.	.
8F 8GJ	8bJ	8d 8fJ	.
=10	=10	=10	=10
8CL	16bLK	8.c 8.eL	.
.	8a	.	.
8E 8GJ	.	.	.
.	[16eJk	[16cJk	.
*	*v	*v	*
8CL	16c] (16eLL]	.
.	16d 16fJ	.
8E 8GJ	8e 8gJ)	.
=11	=11	=11
8BBL	(16gLL	.
.	16b	.
8G 8B 8eJ	16ee	.
.	16ggJJ)	.
*	*^	*
8BBL	16ggLK	8.a 8.ddL	.
.	8ff#	.	.
8A 8B 8d#J	.	.	.
.	[16eeJk	[16g [16bJk	.
*	*v	*v	*
=12	=12	=12
16E 16eLL	4g_ 4b_ 4ee_	f
16c	.	.
16B	.	.
16GJJ	.	.
8EL	8g] 8b] 8eeL]	.
8D 8G 8BJ	8f 8b 8ggJ	.
=13	=13	=13
*^	*^	*
4G	8C 8cL	(16ccLL	4e	.
.	.	16b	.	mf
.	(16EL	16cc	.	.
.	16GJJ)	16eeJJ)	.	.
4r	(16F#LL	16aaLL	4r	.
.	16A	16dd#	.	.
.	16c	16cc	.	.
.	16d#JJ)	16aJJ	.	.
*v	*v	*	*	*
=14	=14	=14	=14
2r	(16gLL	16eLL	.
.	16f#	16d#	.
.	16fn	16dn	.
.	[16eJJ)	&([16cJJ&)	.
.	16eLL]	8cL]	.
.	16eJ	.	.
.	8d 8eJ	8E 8G#J	.
=15	=15	=15	=15
*^	*	*	*
4E	8AA 8AL	(16aLL	4c	.
.	.	16g#	.	.
.	(16CL	16a	.	.
.	16EJJ)	16ccJJ)	.	.
4r	(16DLL	(16ffLL	4r	.
.	16F	16dd	.	.
.	16G#	16b	.	.
.	16BJJ)	16g#JJ)	.	.
*v	*v	*	*	*
=16	=16	=16	=16
(16cLL	16aLL	(16aLL	.
16e	16cc	16a	.
16c#	16b-	16e	.
[16dJJ)	[16aJJ)	[16fJJ	mp
8dL]	16aLL]	8fL]	.
.	16ffJ	.	.
8EE 8EJ	8ggJ	8b- 8cc#J	.
=17	=17	=17	=17
8FF 8FL	16ggLK	8.a 8.ddL	.
.	8ff	.	.
8A 8d 8fJ	.	.	.
.	[16ccJk	16aJk	.
8FF 8FL	16ccLL]	8aL	.
.	16ddJ	.	.
8FF# 8F#J	8dd#J	8a 8ccJ	.
*	*v	*v	*
=18	=18	=18
8GG 8GL	16g 16cc 16eeLK	.
.	8cc 8ee 8gg	.
8BB- 8B-J	.	.
.	[16cc# [16ee [16aaJ	.
*	*^	*
8AA 8AL	16aaLL]	8cc#] 8eeL]	.
.	16eeJ	.	.
8A 8c# 8e 8gJ	8aaJ	8cc# 8eeJ	.
=19	=19	=19	=19
8DD 8DL	16aaLL	8cc 8ffL	f
.	16gg#	.	.
8A 8cn 8d 8f#J	16aa	16cc 16ffL	.
.	[16bbJJ	[16b [16ffnJJ	.
8GG 8GL	4ryy	16b] 16ff] 16bbLL]	.
.	.	16ee 16ggn 16eeeJ	.
8G 8B 8d 8fnJ	.	8dd 8ff 8dddJ	.
*	*v	*v	*
=20	=20	=20
*>A1	*>A1	*>A1
8C 8cL	8cc (8ee 8cccL	.
8G 8c 8eJ	16gL	.
.	16f#JJ	.
4G 4B 4fn	16gLL	.
.	16g#	.
.	16a	.
.	16bJJ)	.
=21:|!	=21:|!	=21:|!
*>A2	*>A2	*>A2
8C 8c	8cc 8ee 8cccL	.
8r	16gL	.
.	16ccJJ	.
8r	(16eeLL	.
.	16cc	.
(16GLL	16ee	.
16EJJ)	16ggJJ)	.
=22!|:	=22!|:	=22!|:
*>B	*>B	*>B
*	*^	*
8DL	(16aaLL	4b 4ff	mf
.	16aa-	.	.
8G 8B 8fJ	16gg	.	.
.	16gg-JJ)	.	.
8GGL	16ffLK	16ffLK	.
.	8ddd	8bb	.
8G 8B 8fJ	.	.	.
.	16ddJk	16ddJk	.
=23	=23	=23	=23
8BBL	8aaL	8ffL	.
8G 8B 8fJ	16bL	16bL	.
.	[16ffJJ	[16ddJJ	.
8GGL	(16ffLL]	16ddLL]	.
.	[16g	16gJ	.
8G 8B 8fJ	16dd	8g] 8bJ	.
.	16dd#JJ)	.	.
=24	=24	=24	=24
8CL	(16eeLL	4g 4cc	.
.	16ee-	.	.
8G 8c 8eJ	16dd	.	.
.	16dd-JJ)	.	.
8EL	16ccLK	16ccLK	.
.	8gg	8een	.
8G 8c 8eJ	.	.	.
.	16gJk	16gJk	.
=25	=25	=25	=25
8GGL	8eeL	8ccL	.
8G 8cJ	16eL	16eL	.
.	[16ccJJ	[16gJJ	.
8EL	16ccLL]	16gLL]	.
.	16cJ	16cJ	.
8CJ	8gJ	8eJ	.
*	*v	*v	*
=26	=26	=26
8BBL	16r	.
.	16g 16ff 16ggLL	.
8G 8B 8fJ	16a 16ff 16aa	.
.	16a# 16ff 16aa#JJ	.
8GGL	16b 16ff 16bbLL	.
.	16cc 16ff 16cccJ	.
8G 8B 8fJ	8dd 8ff 8dddJ	.
=27	=27	=27
8BBL	8a 8dd 8ffL	.
8G 8B 8fJ	16a- 16dd 16ffL	.
.	[16g [16dd [16ffJJ	.
8GGL	16g] 16dd] 16ffLL]	.
.	16f 16dd 16ffnJ	.
8G 8B 8fnJ	8g 8dd 8ffJ	.
=28	=28	=28
8CL	16r	.
.	16g 16ee 16ggLL	.
8G 8c 8eJ	16a 16ee 16aa	.
.	16b 16ee 16bbJJ	.
8GGL	16cc 16ee 16cccLL	.
.	16dd 16ff 16dddJ	.
8G 8c 8eJ	8ee 8gg 8eeeJ	.
=29	=29	=29
8CL	8a 8cc 8eeL	.
8G 8c 8eJ	16a- 16cc 16eeL	.
.	[16g [16cc [16eeJJ	.
8EL	16g] 16cc] 16eeLL]	.
.	(16cc	.
8G 8c 8eJ	16ee	.
.	16ggJJ)	.
=30	=30	=30
*	*^	*
8DL	(16aaLL	4b 4ff	.
.	16aa-	.	.
8G 8c 8fJ	16gg	.	.
.	16gg-JJ)	.	.
8GGL	16ffLK	16ffLK	.
.	8ddd	8bb	.
8G 8B 8fJ	.	.	.
.	16ddJk	16ddJk	.
=31	=31	=31	=31
8BBL	8aaL	8ffL	.
8G 8B 8fJ	16bL	16bL	.
.	[16ffJJ	[16ddJJ	.
8GGL	(16ffLL]	16ddLL]	.
.	[16g	16gJ	.
8G 8B 8fJ	16dd	8g] 8bJ	.
.	16dd#JJ)	.	.
=32	=32	=32	=32
8CL	(16eeLL	4g 4cc	.
.	16ee-	.	.
8G 8c 8eJ	16dd	.	.
.	16dd-JJ)	.	.
8CL	[16ccLK	16ccLK	.
.	8gg	8.cc] 8.eenJ	.
8G 8c 8eJ	.	.	.
.	16gg#Jk	.	.
*	*v	*v	*
=33	=33	=33
(16FLL	2cc 2ff 2aa	.
16E	.	.
16F	.	.
16GJJ	.	.
16ALL	.	.
16BJ	.	.
8cJ)	.	.
=34	=34	=34
*	*^	*
8FF 8FL	(16cccLL	8.ffL	.
.	16bb	.	.
8A 8c 8fJ	16ccc	.	.
.	[16aaJJ)	[16dd#Jk	.
8FF# 8F#L	(16aaLL]	4dd#]	.
.	16bbJ	.	.
8A 8c 8d#J	8cccJ)	.	.
=35	=35	=35	=35
8GG 8GL	16cccLL	8.eeL	f
.	16bb	.	.
8G 8c 8eJ	16ccc	.	.
.	[16eeJJ	[16ccJk	.
8AA 8AL	(16eeLL]	4cc]	.
.	16ccc	.	.
8A 8c 8eJ	16aa	.	.
.	16eeJJ)	.	.
=36	=36	=36	=36
8AA 8AL	(16ccLL	8.f#L	mf
.	16dd	.	.
8DD 8DJ	16ee	.	.
.	[16ddJJ)	[16fn [16bJk	.
8GG 8GL	(16ddLL]	8f] 8bL]	.
.	16eeJ	.	.
8GGG 8GGJ	8ddJ)	8f 8bJ	.
*	*v	*v	*
=37	=37	=37
*>B1	*>B1	*>B1
8CC 8C	8e 8g 8ccL	.
8r	16gL	.
.	16ccJJ	.
8r	(16eeLL	.
.	16cc	.
16GLL	16ee	.
16EJJ	16ggJJ)	.
=38:|!	=38:|!	=38:|!
*>B2	*>B2	*>B2
8CC 8CL	8e 8g 8ccL	.
8G 8c 8eJ	(16gL	.
.	16f#JJ)	.
4G 4c 4fn	(16gLL	.
.	16g#	.
.	16a	.
.	16bJJ)	.
=39	=39	=39
*>C	*>C	*>C
*^	*^	*
8C 8cL	4G	(16ccLL	4e	.
.	.	16b	.	mf
16EL	.	16cc	.	.
16GJJ	.	16eeJJ)	.	.
*v	*v	*	*	*
16F#LL	16aaLL	4r	.
16A	16dd#	.	.
16c	16cc	.	.
16d#JJ	16aJJ	.	.
=40	=40	=40	=40
2r	(16gLL	16eLL	.
.	16f#	16d#	.
.	16fn	16dn	.
.	[16eJJ)	[16cJJ	.
.	16eLL]	&(8cL]&)	.
.	16eJ	.	.
.	8d 8eJ	8E 8G#J	.
=41	=41	=41	=41
*^	*	*	*
4E	8AA 8AL	(16aLL	4c	.
.	.	16g#	.	.
.	(16CL	16a	.	.
.	(16EJJ)	16ccJJ)	.	.
4r	16DLL	(16ffLL	4r	.
.	16F	16dd	.	.
.	16G#	16b	.	.
.	(16BJJ)	16g#JJ)	.	.
*v	*v	*	*	*
=42	=42	=42	=42
16cLL	16aLL	16aLL	.
16e	16cc	16a	.
16c#	16b	16e	.
[16dJJ)	[16a-JJ	&([16fJJ&)	.
8dL]	16a-LL]	8fL]	.
.	16bnJ	.	.
8AA- 8A-J	8ccJ	8d 8fJ	.
=43	=43	=43	=43
8GG 8GL	16ccLK	8.d 8.fL	.
.	8b	.	.
8F 8G 8BJ	.	.	.
.	[16a#Jk	[16c# [16eJk	.
8GG 8GL	16a#LL]	8c#] 8eL]	.
.	16a#J	.	.
8F 8GJ	8bJ	8d 8fJ	.
=44	=44	=44	=44
8CL	16bLK	8.c 8.eL	.
.	8a	.	.
8E 8GJ	.	.	.
.	[16eJk	[16cJk	.
*	*v	*v	*
8CL	16c] (16eLL]	.
.	16d 16fJ	.
8E 8GJ	8e 8gJ)	.
=45	=45	=45
8BBL	(16gLL	.
.	16b	.
8G 8B 8eJ	16ee	.
.	16ggJJ)	.
*	*^	*
8BBL	16ggLK	8.a 8.dd#L	.
.	8ff#	.	.
8A 8B 8d#J	.	.	.
.	[16eeJk	[16g [16bJk	.
*	*v	*v	*
=46	=46	=46
16E 16eLL	4g_ 4b_ 4ee_	f
16c	.	.
16B	.	.
16GJJ	.	.
8EL	8g] 8b] 8eeL]	.
8D 8G 8BJ	8f 8b 8ggJ	.
=47	=47	=47
*^	*^	*
4G	8C 8cL	(16ccLL	4e	.
.	.	16b	.	mf
.	16EL	16cc	.	.
.	16GJJ	16eeJJ)	.	.
4r	(16F#LL	(16aaLL	4r	.
.	16A	16dd#	.	.
.	16c	16cc	.	.
.	16d#JJ)	16aJJ)	.	.
*v	*v	*	*	*
=48	=48	=48	=48
2r	(16gLL	16eLL	.
.	16f#	16d#	.
.	16fn	16dn	.
.	[16eJJ)	&([16cJJ&)	.
.	16e'LL]	8cL]	.
.	16eJ	.	.
.	8d 8eJ	8E 8G#J	.
=49	=49	=49	=49
*^	*	*	*
4E	8AA 8AL	(16aLL	4c	.
.	.	16g#	.	.
.	(16CL	16a	.	.
.	16EJJ)	16ccJJ)	.	.
4r	(16DLL	(16ffLL	4r	.
.	16F	16dd	.	.
.	16G#	16b	.	.
.	(16BJJ)	16g#JJ)	.	.
*v	*v	*	*	*
=50	=50	=50	=50
16cLL	16aLL	16aLL	.
16e	16cc	16a	.
16c	16b-	16e	.
[16dJJ)	[16aJJ	&([16fJJ&)	.
8dL]	16aLL]	8fL]	.
.	16ffJ	.	.
8EE 8EJ	8ggJ	8b- 8ccJ	.
=51	=51	=51	=51
8FF 8FL	16ggLK	8.a 8.ddL	.
.	8ff	.	.
8A 8d 8fJ	.	.	.
.	[16ccJk	16aJk	.
8FF 8FL	16ccLL]	8aL	.
.	16ddJ	.	.
8FF# 8F#J	8dd#J	8a 8ccJ	.
*	*v	*v	*
=52	=52	=52
8GG 8GL	16g 16cc 16eeLK	.
.	8cc 8ee 8gg	.
8BB- 8B-J	.	.
.	[16cc# [16ee [16aaJk	.
*	*^	*
8AA 8AL	16aaLL]	8cc#] 8eeL]	.
.	16eeJ	.	.
8A 8c# 8e 8gJ	8aaJ	8cc# 8eeJ	.
=53	=53	=53	=53
8DD 8DL	(16aaLL	8cc 8ffL	f
.	16gg#	.	.
8A 8cn 8d 8f#J	16aa	16cc 16ffL	.
.	[16bbJJ)	[16b [16ffnJJ	.
8GG 8GL	4ryy	8b] 8ff] 8bbL]	.
8G 8B 8d 8fnJ	.	16ee 16ggn 16eeeL	.
.	.	16dd 16ff 16dddJJ	.
*	*v	*v	*
=54	=54	=54
8C 8c	8cc 8ee 8cccL	.
8r	16ccL	.
.	16ccJJ	.
*	*^	*
4C 4c	4e	(8ccL	.
.	.	8b-J)	.
*	*v	*v	*
=55!|:	=55!|:	=55!|:
*>D	*>D	*>D
*k[b-]	*k[b-]	*k[b-]
*F:	*F:	*F:
*^	*	*
8FL	4F	16f (16aLL	mp
.	.	16g 16b-	.
8A 8c 8fJ	.	16g# 16bn	.
.	.	[16a [16ccJJ)	.
8FL	4F	16a] (16ccLL]	.
.	.	16b- 16dd	.
8B- 8d 8fJ	.	16dd 16ff	.
.	.	16b- 16ddJJ	.
=56	=56	=56	=56
8FL	4F	16a (16ccLL)	.
.	.	16g# 16bn	.
8A 8c 8fJ	.	16a 16cc	.
.	.	[16f [16aJJ)	.
8FL	4F	16f] (16aLL]	.
.	.	16a	.
8A 8c 8fJ	.	16cc	.
.	.	16ee-JJ)	.
=57	=57	=57	=57
*	*	*^	*
8FL	4F	16ddLK	4b-	.
.	.	8gg	.	.
8B- 8d 8fJ	.	.	.	.
.	.	16ffJk	.	.
8FL	4F	16dd-LK	4b-	.
.	.	8gg	.	.
8B- 8d- 8fJ	.	.	.	.
.	.	16ffJk	.	.
*	*	*v	*v	*
=58	=58	=58	=58
8FL	4F	16a 16ccLL	.
.	.	16g# 16bn	.
8A 8c 8fJ	.	16a 16cc	.
.	.	[16f [16aJJ	.
4ryy	(16FLL	4f] 4a]	.
.	16E	.	.
.	16D	.	.
.	16CJJ)	.	.
*v	*v	*	*
=59	=59	=59
*	*^	*
8CC 8CL	(16gLL	8B- 8eL	.
.	16f#	.	.
8CC 8CJ	16g	16B- 16eL	.
.	[16aJJ)	[16A [16eJJ	.
8CC# 8C#L	(16aLL]	8A] 8eL]	.
.	16g	.	.
8CC# 8C#J	16a	8A 8eJ	.
.	16gJJ)	.	.
=60	=60	=60	=60
8DD 8DL	(16fLL	8A 8dL	.
.	16e	.	.
8DD 8DJ	16f	16A 16dL	.
.	[16aJJ)	[16d [16fJJ	.
8FF 8FL	16aLL]	8d] 8fL]	.
.	16gJ	.	.
8FF# 8F#J	8aJ	8c 8d#J	.
=61	=61	=61	=61
4GG 4G	(16eLL	8.cL	.
.	16g	.	.
.	16cc	.	.
.	16eeJJ)	16g 16ccJk	.
8AA 8AL	16eeLL	8f# 8ccL	.
.	16ccJ	.	.
8GG 8GJ	8ddJ	8fn 8bnJ	.
=62	=62	=62	=62
*^	*	*	*
16r	[4C	4cc	16r	mf
(16GLL	.	.	16c (16eLL	.
16A	.	.	16c 16f	.
[16B-JJ	.	.	[16c [16e [16gJJ)	.
16B-LL]	8CL]	&(8ccL&)	16c] 16e] 16gLL]	.
16AJ)	.	.	16c 16fJ	.
8GJ	8CJ	8ccJ	8c 8eJ	.
*	*	*v	*v	*
=63	=63	=63	=63
8FL	4F	16f (16aLL	mp
.	.	16g 16b-	.
8A 8c 8fJ	.	16g# 16b-	.
.	.	[16a [16ccJJ)	.
8FL	4F	16a] 16ccLL]	.
.	.	16b- 16dd	.
8B- 8d 8fJ	.	16dd 16ff	.
.	.	16b- 16ddJJ	.
=64	=64	=64	=64
4F	8FL	16a 16ccLL	.
.	.	16g# 16bn	.
.	8A 8c 8fJ	16a 16cc	.
.	.	[16f [16aJJ	.
4ryy	(16CLL	4f] 4a]	.
.	16BBn	.	.
.	16C	.	.
.	16C#JJ)	.	.
*v	*v	*	*
=65	=65	=65
*	*^	*
8DL	(16fLK	4A 4d	.
.	8g	.	.
8DJ	.	.	.
.	16fJk)	.	.
8BB-L	8eL	8G 8dL	.
8BB-J	8eJ	8G# 8dJ	.
*	*v	*v	*
=66	=66	=66
16AALL	[4A [4c# [4e [4a	.
16D#	.	.
16E	.	.
16C#JJ	.	.
8AAL	8A] 8c#] 8e] 8aL]	.
8GG 8GJ	8c# 8e 8aJ	.
=67	=67	=67
*	*^	*
4FF 4F#	(16aLL	8.cn 8.dL	.
.	16g	.	.
.	16a	.	.
.	[16b-JJ)	[16c [16f#Jk	.
8DD 8DL	(16b-LL]	8c] 8f#L]	.
.	16a	.	.
8DD 8DJ	16b-	8c 8f#J	.
.	16aJJ)	.	.
*	*v	*v	*
=68	=68	=68
(16GGLL	4B- 4d 4a	.
16AA	.	.
16BB-	.	.
16CJJ)	.	.
8BB-L	8B- 8d 8gL	.
8BBnJ	8d 8f# 8gJ	.
=69	=69	=69
*	*^	*
4C	(16aLL	4c 4f	.
.	16ff	.	.
.	16dd	.	.
.	16ccJJ)	.	.
*	*v	*v	*
8DD 8DL	8Bn 8fL	.
8CC 8CJ	8B- 8e 8gJ	.
=70	=70	=70
*>D1	*>D1	*>D1
8FF 8F	8A 8c 8fL	.
8r	16ccL	.
.	16ccJJ	.
*	*^	*
4C	(8ccL	4e	.
.	8b-J)	.	.
*	*v	*v	*
=71:|!	=71:|!	=71:|!
*>D2	*>D2	*>D2
8FF 8F	8A 8c 8fL	.
8r	16ccL	.
.	16ffJJ	.
8r	(16aaLL	.
.	16ff	.
8FF# 8F#	16aa	.
.	16cccJJ)	.
=72!|:	=72!|:	=72!|:
*>E	*>E	*>E
*	*^	*
8GG 8GL	(16dddLL	8.ee 8.bb-L	mf
.	16ccc#	.	.
8B- 8c 8eJ	16ddd	.	.
.	[16cccnJJ)	[16ee [16bb-Jk	.
8CC 8CL	16cccLK]	16ee] 16bb-LK]	.
.	8ddd	8.ee 8.bb-J	.
8B- 8c 8eJ	.	.	.
.	16cccJk	.	.
=73	=73	=73	=73
8GG 8GL	(16dddLL	8.ee 8.bb-L	.
.	16ccc#	.	.
8BB- 8B-J	16ddd	.	.
.	[16cccnJJ	[16ee [16bb-Jk)	.
8AA 8AL	16cccLK]	16ee] 16bb-LK]	.
.	8ddd	8.ee 8.bb-J	.
8GG 8GJ	.	.	.
.	16cccJk	.	.
=74	=74	=74	=74
8FF 8FL	(16dddLL	8.ff 8.aaL	.
.	16ccc#	.	.
8A 8c 8fJ	16ddd	.	.
.	[16ccc#JJ)	[16ff [16aaJk	.
8CC 8CL	16ccc#LK]	16ff] 16aaLK]	.
.	8ddd	8.ff 8.aaJ	.
8A 8c 8fJ	.	.	.
.	16ccc#Jk	.	.
=75	=75	=75	=75
8FF 8FL	(16dddLL	8.ff 8.aaL	.
.	16ccc#	.	.
8C 8cJ	16ddd	.	.
.	[16cccnJJ)	[16ff [16aaJk	.
8AA 8AL	16cccLK]	16ff] 16aaLK]	.
.	8dddn	8.dd# 8.aaJ	.
8FF# 8F#J	.	.	.
.	16cccJk	.	.
=76	=76	=76	=76
8GG 8GL	(16eeeLL	8.ee 8.bb-L	.
.	16ddd#	.	.
8B- 8c 8eJ	16eee	.	.
.	[16dddnJJ)	[16ee [16bb-Jk	.
8CC 8CL	16dddLK]	16ee] 16bb-LK]	.
.	8eee	8.ee 8.bb-J	.
8B- 8c 8eJ	.	.	.
.	16dddJk	.	.
=77	=77	=77	=77
8C 8cL	(16eeeLL	8.ee 8.bb-L	.
.	16ddd#	.	.
8BB- 8B-J	16eee	.	.
.	[16dddnJJ)	[16ee [16bb-Jk	.
8GG 8GL	16dddLK]	16ee] 16bb-LK]	.
.	8eee	8.ee 8.bb-J	.
8GG# 8G#J	.	.	.
.	16cccJk	.	.
=78	=78	=78	=78
8AA 8AL	(16fffLL	8.ff 8.aaL	.
.	16eee	.	.
8A 8c 8fJ	16fff	.	.
.	[16cccnJJ)	[16ff [16aaJk	.
8FF 8FL	16cccLK]	16ff] 16aaLK]	.
.	8ddd	8.ff 8.aaJ	.
8A 8c 8fJ	.	.	.
.	16cccJk	.	.
=79	=79	=79	=79
8D 8dL	(16fffLL	8.ff 8.aaL	.
.	16eee	.	.
8C 8cJ	16fff	.	.
.	[16cccJJ)	[16ff [16aaJk	.
8AA 8AL	4ryy	16ff] 16aa] 16cccLL]	.
.	.	16ff 16aa 16cccJ	.
8AA- 8A-J	.	8ff 8bbn 8dddJ	.
=80	=80	=80	=80
8GG 8GL	(16dddLL	8.ee 8.bb-L	.
.	16ccc#	.	.
8B- 8c 8eJ	16ddd	.	.
.	[16ccc#JJ	[16ee [16bb-Jk)	.
8CC 8CL	16ccc#LK]	16ee] 16bb-LK]	.
.	8bb- 8ddd	8.eeJ	.
8B- 8c 8eJ	.	.	.
.	16ccc#Jk	.	.
=81	=81	=81	=81
8GG 8GL	16dddLL	8.ee 8.bb-L	.
.	16ccc#	.	.
8BB- 8B-J	16ddd	.	.
.	[16cccnJJ	[16ee [16bb-Jk	.
8AA 8AL	16cccLK]	16ee] 16bb-LK]	.
.	8ddd	8.ee 8.bb-J	.
8GG 8GJ	.	.	.
.	16cccJk	.	.
=82	=82	=82	=82
8FF 8FL	(16dddLL	8.ff 8.aaL	.
.	16ccc#	.	.
8A 8c 8fJ	16ddd	.	.
.	[16cccnJJ)	[16ff [16aaJk	.
8CC 8CL	16cccLK]	16ff] 16aaLK]	.
.	8ddd	8.ff 8.aaJ	.
8A 8c 8fJ	.	.	.
.	16cccJk	.	.
=83	=83	=83	=83
8AA 8AL	(16dddLL	8.ee- 8.aaL	.
.	16ccc#	.	.
8FF 8FJ	16ddd	.	.
.	[16ccc#JJ)	[16ee- [16aaJk	.
8GG 8GL	16ccc#LK]	16ee-] 16aaLK]	.
.	8ddd	8.ee- 8.aaJ	.
8AA 8AJ	.	.	.
.	16ccc#Jk	.	.
=84	=84	=84	=84
8BB- 8B-L	16cccLK	8.dd 8.ffL	.
.	8bb-	.	.
8B- 8d 8fJ	.	.	.
.	[16ffJk	[16dd-Jk	.
8BB- 8B-L	(16ffLL]	8dd-L]	.
.	16cccJ	.	.
8B- 8d- 8fJ	8bb-J)	8dd- 8ffJ	.
=85	=85	=85	=85
8C 8cL	16bb-LK	8.cc 8.ffL	.
.	8aa	.	.
8A 8c 8fJ	.	.	.
.	[16ffJk	[16ccJk	.
8AA 8AL	(16ffLL]	8ccL]	.
.	16bb-J	.	.
8A 8c 8fJ	8aaJ)	8ffJ	.
=86	=86	=86	=86
8GG 8GL	16aaLK	8.b- 8.ffL	.
.	8gg	.	.
8G 8Bn 8d 8fJ	.	.	.
.	[16ggJk	[16b- [16eeJk	.
8CC 8CL	(16ggLL]	8b-] 8eeL]	.
.	16aaJ	.	.
8B- 8c 8eJ	8ggJ)	8b- 8eeJ	.
*	*v	*v	*
=87	=87	=87
*>E1	*>E1	*>E1
8FF 8F	8a 8cc 8ffL	.
8r	(16ccL	.
.	16ffJJ)	.
8r	(16aaLL	.
.	16ff	.
8FF# 8F#	16aa	.
.	16cccJJ)	.
=88	=88	=88
*>E2	*>E2	*>E2
8FF 8FL	4a 4cc 4ff	.
(BBnq	.	.
8C)	.	.
8FFJ	8ff 8aa 8ccc 8fff	.
8r	8r	.
==	==	==
*-	*-	*-
